packages/icons/svg/Fill/twitter.svg

<svg fill="none" height="24" viewBox="0 0 24 24" width="24" xmlns="http://www.w3.org/2000/svg"><path clip-rule="evenodd" d="m8.07693 20.0003c7.24597 0 11.43797-5.626 11.43797-10.96503 0-.147 1.03-1.031 1.471-2.87399.09-.374-.274-.669-.617-.512-.88.404-1.773.084-2.161-.376-1.492-1.627-3.987-1.705-5.574-.175-1.023.987-1.457 2.45699-1.14 3.85999-3.35097.239-5.65197-1.349-7.54397-3.52599-.244-.283-.697-.134-.748.24-.28 2.08199-.368 7.14402 4.648 10.05102-.871 1.252-2.576 1.991-4.474 2.308-.42.071-.52.653-.136.841 1.504.74 3.157 1.127 4.837 1.125" fill="#6b7280" fill-rule="evenodd"/></svg>

<svg width="24" height="24" viewBox="0 0 24 24" fill="none" xmlns="http://www.w3.org/2000/svg">
<g id="Icon/Fill/twitter">
<path id="Mask" fill-rule="evenodd" clip-rule="evenodd" d="M8.07693 20.0003C15.3229 20.0003 19.5149 14.3743 19.5149 9.03528C19.5149 8.88828 20.5449 8.00428 20.9859 6.16128C21.0759 5.78728 20.7119 5.49228 20.3689 5.64928C19.4889 6.05328 18.5959 5.73328 18.2079 5.27328C16.7159 3.64628 14.2209 3.56828 12.6339 5.09828C11.6109 6.08528 11.1769 7.55528 11.4939 8.95828C8.14293 9.19728 5.84193 7.60928 3.94993 5.43228C3.70593 5.14928 3.25293 5.29828 3.20193 5.67228C2.92193 7.75428 2.83393 12.8163 7.84993 15.7233C6.97893 16.9753 5.27393 17.7143 3.37593 18.0313C2.95593 18.1023 2.85593 18.6843 3.23993 18.8723C4.74393 19.6123 6.39693 19.9993 8.07693 19.9973" fill="#000000"/>
</g>
</svg>
